web/assets/images/product/spicy.svg

<svg xmlns="http://www.w3.org/2000/svg" viewBox="0 0 9.5 23.8"><path d="M8.8 9.4c0-.4-.1-.8-.1-1.2 0-.3-.1-.7-.1-1 0-.3-.2-.6-.4-.9-.3-.5-.8-.8-1.3-1-.1 0-.2-.1-.3-.1 0 .4-.2.7-.4 1-.3.2-.6.4-.9.4-.5.1-.9.1-1.3-.2 0 0-.1-.1-.2-.1 0 .1-.1.1-.1.2-.2.2-.3.5-.4.8-.1.3-.1.5 0 .8.1.9.3 1.7.4 2.6.1 1.1.2 2.2.2 3.3 0 .8 0 1.5-.1 2.3 0 .2 0 .4-.1.5-.1.5-.1 1-.2 1.4-.2 1-.5 1.9-.8 2.8-.2.4-.3.9-.4 1.3-.1.2-.1.4-.1.6 0 .2.1.3.3.3h.1l.6-.3c.7-.3 1.2-.8 1.7-1.3.6-.6 1.2-1.3 1.7-2 .3-.5.6-1.1.9-1.7.2-.6.5-1.1.6-1.7.4-1.3.6-2.6.7-3.9.1-1 .1-1.9 0-2.9zm-3.4 4.9c0 .1-.1.9-.1 1.1 0 .2-.3 1-.3 1.2-.1.2-.1.3-.2.5 0 .1-.1.1-.1.2v-.1c0-.2.1-.4.1-.7 0-.3.1-.6.1-1 0-.2 0-.4.1-.7v-1.7c0-.9-.2-1.9-.4-2.8-.1-.3-.1-.6-.2-1v-.1l.1.1c.1.2.2.5.3.7.4 1.1.6 2.2.6 3.4v.9z" fill-rule="evenodd" clip-rule="evenodd" fill="#f15b25"/><path d="M6 5.1c-.2-.2-.4-.3-.6-.5-.3-.3-.6-.7-.9-1.1-.3-.4-.7-.8-1-1.2-.5-.4-.9-.7-1.3-1-.3-.2-.6-.4-.9-.5C1.1.7 1 .7.9.6c-.1.3-.2.5-.3.7.1 0 .2.1.3.1.5.2.9.5 1.4.8.5.4 1 .9 1.4 1.4.2.4.4.8.5 1.3.1.3.1.5 0 .8 0 .1-.1.2-.1.3.1 0 .2.1.4.1.3.1.6.1.9 0 .4-.1.7-.5.7-1H6z" fill-rule="evenodd" clip-rule="evenodd" fill="#72ab74"/></svg>

<?xml version="1.0" encoding="utf-8"?>
<svg version="1.1" id="Capa_1" xmlns="http://www.w3.org/2000/svg" xmlns:xlink="http://www.w3.org/1999/xlink" x="0px" y="0px"
	 viewBox="0 0 9.5 23.8" style="enable-background:new 0 0 9.5 23.8;" xml:space="preserve">
<style type="text/css">
	.st0{fill-rule:evenodd;clip-rule:evenodd;fill:#F15B25;}
	.st1{fill-rule:evenodd;clip-rule:evenodd;fill:#72AB74;}
</style>
<g>
	<g id="Shape_389">
		<g>
			<path class="st0" d="M8.8,9.4c0-0.4-0.1-0.8-0.1-1.2c0-0.3-0.1-0.7-0.1-1c0-0.3-0.2-0.6-0.4-0.9c-0.3-0.5-0.8-0.8-1.3-1
				c-0.1,0-0.2-0.1-0.3-0.1c0,0.4-0.2,0.7-0.4,1C5.9,6.4,5.6,6.6,5.3,6.6C4.8,6.7,4.4,6.7,4,6.4C4,6.4,3.9,6.3,3.8,6.3
				C3.8,6.4,3.7,6.4,3.7,6.5C3.5,6.7,3.4,7,3.3,7.3c-0.1,0.3-0.1,0.5,0,0.8c0.1,0.9,0.3,1.7,0.4,2.6c0.1,1.1,0.2,2.2,0.2,3.3
				c0,0.8,0,1.5-0.1,2.3c0,0.2,0,0.4-0.1,0.5c-0.1,0.5-0.1,1-0.2,1.4C3.3,19.2,3,20.1,2.7,21c-0.2,0.4-0.3,0.9-0.4,1.3
				c-0.1,0.2-0.1,0.4-0.1,0.6c0,0.2,0.1,0.3,0.3,0.3c0,0,0.1,0,0.1,0C2.8,23.1,3,23,3.2,22.9c0.7-0.3,1.2-0.8,1.7-1.3
				c0.6-0.6,1.2-1.3,1.7-2c0.3-0.5,0.6-1.1,0.9-1.7c0.2-0.6,0.5-1.1,0.6-1.7c0.4-1.3,0.6-2.6,0.7-3.9C8.9,11.3,8.9,10.4,8.8,9.4z
				 M5.4,14.3c0,0.1-0.1,0.9-0.1,1.1c0,0.2-0.3,1-0.3,1.2c-0.1,0.2-0.1,0.3-0.2,0.5c0,0.1-0.1,0.1-0.1,0.2c0,0,0,0,0,0
				c0,0,0-0.1,0-0.1c0-0.2,0.1-0.4,0.1-0.7c0-0.3,0.1-0.6,0.1-1c0-0.2,0-0.4,0.1-0.7c0-0.3,0-1.4,0-1.7c0-0.9-0.2-1.9-0.4-2.8
				c-0.1-0.3-0.1-0.6-0.2-1c0,0,0-0.1,0-0.1c0,0,0,0,0,0c0,0,0.1,0.1,0.1,0.1c0.1,0.2,0.2,0.5,0.3,0.7c0.4,1.1,0.6,2.2,0.6,3.4
				C5.4,13.7,5.4,14,5.4,14.3z"/>
		</g>
	</g>
	<g id="Shape_390">
		<g>
			<path class="st1" d="M6,5.1C5.8,4.9,5.6,4.8,5.4,4.6C5.1,4.3,4.8,3.9,4.5,3.5c-0.3-0.4-0.7-0.8-1-1.2C3,1.9,2.6,1.6,2.2,1.3
				C1.9,1.1,1.6,0.9,1.3,0.8C1.1,0.7,1,0.7,0.9,0.6C0.8,0.9,0.7,1.1,0.6,1.3c0.1,0,0.2,0.1,0.3,0.1c0.5,0.2,0.9,0.5,1.4,0.8
				c0.5,0.4,1,0.9,1.4,1.4C3.9,4,4.1,4.4,4.2,4.9c0.1,0.3,0.1,0.5,0,0.8c0,0.1-0.1,0.2-0.1,0.3C4.2,6,4.3,6.1,4.5,6.1
				c0.3,0.1,0.6,0.1,0.9,0c0.4-0.1,0.7-0.5,0.7-1C6.1,5.1,6,5.1,6,5.1z"/>
		</g>
	</g>
</g>
</svg>
